public/img/icons/sprite/bass_clef.svg

<?xml version="1.0" encoding="UTF-8" standalone="no"?>
<!-- Created with Inkscape (http://www.inkscape.org/) -->
<svg
   xmlns:dc="http://purl.org/dc/elements/1.1/"
   xmlns:cc="http://creativecommons.org/ns#"
   xmlns:rdf="http://www.w3.org/1999/02/22-rdf-syntax-ns#"
   xmlns:svg="http://www.w3.org/2000/svg"
   xmlns="http://www.w3.org/2000/svg"
   xmlns:sodipodi="http://sodipodi.sourceforge.net/DTD/sodipodi-0.dtd"
   xmlns:inkscape="http://www.inkscape.org/namespaces/inkscape"
   version="1.0"
   width="810"
   height="1200"
   id="svg1894"
   sodipodi:version="0.32"
   inkscape:version="0.46"
   sodipodi:docname="Bass_clef_with_ref.svg"
   inkscape:output_extension="org.inkscape.output.svg.inkscape">
  <metadata
     id="metadata2533">
    <rdf:RDF>
      <cc:Work
         rdf:about="">
        <dc:format>image/svg+xml</dc:format>
        <dc:type
           rdf:resource="http://purl.org/dc/dcmitype/StillImage" />
      </cc:Work>
    </rdf:RDF>
  </metadata>
  <sodipodi:namedview
     inkscape:window-height="838"
     inkscape:window-width="1489"
     inkscape:pageshadow="2"
     inkscape:pageopacity="0.0"
     guidetolerance="10.0"
     gridtolerance="10.0"
     objecttolerance="10.0"
     borderopacity="1.0"
     bordercolor="#666666"
     pagecolor="#ffffff"
     id="base"
     showgrid="false"
     inkscape:zoom="1.0842304"
     inkscape:cx="468.53292"
     inkscape:cy="600"
     inkscape:window-x="166"
     inkscape:window-y="94"
     inkscape:current-layer="layer3" />
  <defs
     id="defs1896">
    <inkscape:perspective
       sodipodi:type="inkscape:persp3d"
       inkscape:vp_x="0 : 600 : 1"
       inkscape:vp_y="0 : 1000 : 0"
       inkscape:vp_z="810 : 600 : 1"
       inkscape:persp3d-origin="405 : 400 : 1"
       id="perspective2535" />
    <style
       type="text/css"
       id="style6" />
  </defs>
  <g
     inkscape:groupmode="layer"
     id="layer1"
     inkscape:label="staff"
     style="display:inline">
    <g
       transform="translate(8.39131,189.08701)"
       id="g1934">
      <path
         d="M 4.2160405,395.78396 L 795.78395,395.78396"
         style="fill:none;fill-rule:evenodd;stroke:#131516;stroke-width:8.43207264"
         id="path11" />
      <path
         d="M 4.2160405,635.78396 L 795.78395,635.78396"
         style="fill:none;fill-rule:evenodd;stroke:#131516;stroke-width:8.43207264"
         id="path13" />
      <path
         d="M 4.2160405,515.78396 L 795.78395,515.78396"
         style="fill:none;fill-rule:evenodd;stroke:#131516;stroke-width:8.43207264"
         id="path15" />
      <path
         d="M 4.2160405,275.78396 L 795.78395,275.78396"
         style="fill:none;fill-rule:evenodd;stroke:#131516;stroke-width:8.43207264"
         id="path17" />
      <path
         d="M 4.2160405,155.78396 L 795.78395,155.78396"
         style="fill:none;fill-rule:evenodd;stroke:#131516;stroke-width:8.43207264"
         id="path19" />
    </g>
  </g>
  <g
     inkscape:groupmode="layer"
     id="layer2"
     inkscape:label="clef"
     style="display:inline">
    <path
       d="M 43.92769,729.00229 C 76.68501,706.88352 101.14934,690.1394 116.90602,678.56323 C 132.66272,667.19375 149.2487,652.93025 166.24934,635.9794 C 183.24997,619.02857 197.55538,599.80384 209.16557,578.51194 C 218.28787,562.8014 226.16621,544.61027 232.59328,523.9385 C 239.02036,503.47347 242.33754,483.6286 242.95953,464.81731 C 242.95953,447.2463 240.67894,430.5022 235.91049,414.79165 C 231.34932,398.87441 223.47099,385.8512 212.27544,375.30862 C 201.07991,364.97273 186.56716,359.80481 168.52991,359.80481 C 151.11462,359.80481 134.73596,363.319 119.39393,370.14067 C 104.25921,377.16907 93.47832,388.33183 87.46591,404.04235 C 87.46591,405.48937 86.6366,407.34982 85.39266,410.03715 C 85.8073,413.34465 87.46591,415.82525 90.57578,417.6857 C 93.68565,419.54617 96.38086,420.37303 98.86877,420.37303 C 100.11272,420.37303 103.63724,419.75287 109.02768,418.51258 C 114.62545,417.27227 119.18661,416.4454 122.91844,416.4454 C 133.90665,416.4454 143.65093,420.37303 152.5659,428.02157 C 161.27355,435.67012 165.62735,444.97242 165.62735,455.92845 C 165.62735,463.78371 163.34679,471.22555 158.99297,478.04722 C 154.63915,484.86891 148.62672,490.45027 140.95571,494.37791 C 133.28469,498.51226 124.78438,500.3727 115.66208,500.3727 C 99.07608,500.3727 84.978,495.41148 73.36781,485.28234 C 61.96494,474.94645 56.15984,461.92325 56.15984,445.59258 C 56.15984,424.7141 62.58693,406.72967 75.23373,391.43258 C 88.08788,376.1355 104.25921,364.76602 124.16238,357.11747 C 143.85825,349.26221 163.76144,345.54129 184.07927,345.54129 C 206.26302,345.54129 227.41017,351.12266 247.10603,362.49212 C 267.0092,373.65487 282.55857,389.1587 294.16875,408.38342 C 305.77894,427.81486 311.79135,448.48662 311.79135,470.8121 C 311.79135,510.50188 298.52258,547.29759 271.985,581.40599 C 245.44741,615.51437 212.6901,645.07497 173.50571,670.29452 C 147.38277,687.45206 105.08851,710.60443 46.83022,739.7516 L 43.92769,729.00229 z M 331.90187,409.2103 C 331.90187,401.76845 334.59709,395.56693 339.98755,390.60571 C 345.17066,385.43776 351.59773,382.95716 359.26875,382.95716 C 365.90316,382.95716 372.12288,385.8512 377.72066,391.43258 C 383.31842,396.80724 386.01366,403.21548 386.01366,410.24388 C 386.01366,417.6857 383.11111,424.09395 377.72066,429.26188 C 371.91557,434.22311 365.4885,436.70372 358.23212,436.70372 C 350.5611,436.70372 344.34135,434.22311 339.36557,428.64173 C 334.38977,423.26707 331.90187,416.85883 331.90187,409.2103 z M 331.90187,517.53026 C 331.90187,510.08843 334.59709,503.68018 339.57289,498.71898 C 344.75601,493.55104 351.18307,491.07043 359.26875,491.07043 C 365.90316,491.07043 371.91557,493.75775 377.72066,499.33913 C 383.11111,504.92051 386.01366,510.91531 386.01366,517.53026 C 386.01366,525.59225 383.31842,532.0005 378.1353,537.16843 C 372.74486,542.33636 366.52513,545.02369 359.26875,545.02369 C 351.18307,545.02369 344.75601,542.33636 339.57289,537.37515 C 334.59709,532.41393 331.90187,525.79897 331.90187,517.53026 z"
       style="fill:#000000;stroke:#131516;stroke-width:0.62106282"
       id="path2070" />
  </g>
  <g
     inkscape:groupmode="layer"
     id="layer3"
     inkscape:label="label">
    <path
       sodipodi:type="arc"
       style="fill:#ffffff;fill-opacity:1;stroke:none;stroke-width:0.5;stroke-miterlimit:4;stroke-dasharray:none;stroke-dashoffset:0;stroke-opacity:1;display:inline"
       id="path3276"
       sodipodi:cx="656.68701"
       sodipodi:cy="471.37259"
       sodipodi:rx="108.83295"
       sodipodi:ry="108.83295"
       d="M 765.51996,471.37259 A 108.83295,108.83295 0 1 1 547.85406,471.37259 A 108.83295,108.83295 0 1 1 765.51996,471.37259 z"
       transform="matrix(0.8147056,0,0,0.8480015,30.519184,65.231863)" />
    <text
       xml:space="preserve"
       style="font-size:144px;font-style:normal;font-variant:normal;font-weight:normal;font-stretch:normal;text-align:start;line-height:100%;writing-mode:lr-tb;text-anchor:start;fill:#000000;fill-opacity:1;stroke:none;stroke-width:1px;stroke-linecap:butt;stroke-linejoin:miter;stroke-opacity:1;display:inline;font-family:Sans;-inkscape-font-specification:Sans"
       x="480.99704"
       y="517.37445"
       id="text3278"
       sodipodi:linespacing="100%"><tspan
         sodipodi:role="line"
         id="tspan3280"
         x="480.99704"
         y="517.37445">F3</tspan></text>
  </g>
</svg>

<?xml version="1.0" encoding="utf-8"?>
<!-- Generator: Adobe Illustrator 16.0.0, SVG Export Plug-In . SVG Version: 6.00 Build 0)  -->
<!DOCTYPE svg PUBLIC "-//W3C//DTD SVG 1.1//EN" "http://www.w3.org/Graphics/SVG/1.1/DTD/svg11.dtd">
<svg version="1.1"
	 id="svg1894" xmlns:dc="http://purl.org/dc/elements/1.1/" xmlns:cc="http://creativecommons.org/ns#" xmlns:rdf="http://www.w3.org/1999/02/22-rdf-syntax-ns#" xmlns:svg="http://www.w3.org/2000/svg" xmlns:inkscape="http://www.inkscape.org/namespaces/inkscape" xmlns:sodipodi="http://sodipodi.sourceforge.net/DTD/sodipodi-0.dtd" inkscape:output_extension="org.inkscape.output.svg.inkscape" sodipodi:version="0.32" sodipodi:docname="Bass_clef_with_ref.svg" inkscape:version="0.46"
	 xmlns="http://www.w3.org/2000/svg" xmlns:xlink="http://www.w3.org/1999/xlink" x="0px" y="0px" width="455.5px" height="1200px"
	 viewBox="0 0 455.5 1200" enable-background="new 0 0 455.5 1200" xml:space="preserve">
<sodipodi:namedview  inkscape:cy="600" inkscape:cx="468.53292" inkscape:zoom="1.0842304" showgrid="false" pagecolor="#ffffff" bordercolor="#666666" guidetolerance="10.0" objecttolerance="10.0" gridtolerance="10.0" borderopacity="1.0" id="base" inkscape:current-layer="layer3" inkscape:window-y="94" inkscape:window-x="166" inkscape:pageopacity="0.0" inkscape:pageshadow="2" inkscape:window-height="838" inkscape:window-width="1489">
	</sodipodi:namedview>
<defs>
	
	
		<inkscape:perspective  inkscape:vp_z="810 : 600 : 1" inkscape:vp_y="0 : 1000 : 0" inkscape:vp_x="0 : 600 : 1" sodipodi:type="inkscape:persp3d" id="perspective2535" inkscape:persp3d-origin="405 : 400 : 1">
		</inkscape:perspective>
</defs>
<g id="layer1" inkscape:label="staff" inkscape:groupmode="layer">
	<g id="g1934" transform="translate(8.39131,189.08701)">
		<path id="path11" fill="none" stroke="#131516" stroke-width="8.4321" d="M4.216,395.784h428.893"/>
		<path id="path13" fill="none" stroke="#131516" stroke-width="8.4321" d="M4.216,635.784h428.893"/>
		<path id="path15" fill="none" stroke="#131516" stroke-width="8.4321" d="M4.216,515.784h428.893"/>
		<path id="path17" fill="none" stroke="#131516" stroke-width="8.4321" d="M4.216,275.784h428.893"/>
		<path id="path19" fill="none" stroke="#131516" stroke-width="8.4321" d="M4.216,155.784h428.893"/>
	</g>
</g>
<g id="layer2" inkscape:label="clef" inkscape:groupmode="layer">
	<path id="path2070" stroke="#131516" stroke-width="0.6211" d="M43.928,729.002c32.757-22.118,57.222-38.862,72.979-50.438
		c15.756-11.37,32.342-25.633,49.343-42.584c17-16.951,31.306-36.176,42.916-57.468c9.123-15.71,17-33.901,23.428-54.573
		c6.427-20.465,9.744-40.31,10.366-59.121c0-17.571-2.281-34.315-7.049-50.026c-4.562-15.917-12.439-28.94-23.635-39.483
		c-11.195-10.336-25.708-15.504-43.746-15.504c-17.415,0-33.794,3.514-49.136,10.336c-15.135,7.028-25.916,18.191-31.928,33.902
		c0,1.447-0.829,3.307-2.073,5.995c0.415,3.308,2.073,5.788,5.183,7.648c3.11,1.861,5.805,2.688,8.293,2.688
		c1.244,0,4.769-0.62,10.159-1.86c5.598-1.24,10.159-2.067,13.891-2.067c10.988,0,20.732,3.928,29.647,11.576
		c8.708,7.648,13.062,16.951,13.062,27.907c0,7.855-2.281,15.297-6.634,22.118c-4.354,6.822-10.366,12.403-18.038,16.331
		c-7.671,4.135-16.171,5.995-25.293,5.995c-16.586,0-30.684-4.962-42.294-15.091c-11.403-10.336-17.208-23.359-17.208-39.689
		c0-20.879,6.427-38.863,19.074-54.16c12.854-15.297,29.025-26.667,48.929-34.315c19.696-7.855,39.599-11.576,59.917-11.576
		c22.184,0,43.331,5.581,63.027,16.951c19.903,11.163,35.453,26.667,47.063,45.891c11.61,19.431,17.622,40.103,17.622,62.429
		c0,39.689-13.269,76.485-39.806,110.594s-59.295,63.669-98.479,88.889c-26.123,17.157-68.417,40.31-126.676,69.457L43.928,729.002z
		 M331.902,409.21c0-7.442,2.694-13.644,8.085-18.605c5.184-5.167,11.61-7.648,19.281-7.648c6.635,0,12.854,2.894,18.452,8.476
		c5.598,5.375,8.293,11.783,8.293,18.811c0,7.442-2.902,13.85-8.293,19.018c-5.805,4.961-12.232,7.442-19.488,7.442
		c-7.671,0-13.891-2.481-18.867-8.062C334.39,423.267,331.902,416.859,331.902,409.21z M331.902,517.53
		c0-7.441,2.694-13.851,7.671-18.812c5.183-5.168,11.609-7.648,19.695-7.648c6.635,0,12.647,2.688,18.452,8.269
		c5.391,5.582,8.293,11.576,8.293,18.191c0,8.062-2.695,14.47-7.878,19.638c-5.391,5.168-11.61,7.855-18.867,7.855
		c-8.086,0-14.513-2.688-19.695-7.648C334.597,532.414,331.902,525.799,331.902,517.53z"/>
</g>
</svg>
